Numix-GalliumOS/32/categories/applications-cardgames.svg

<?xml version="1.0" encoding="UTF-8" standalone="no"?>
<svg
   xmlns:dc="http://purl.org/dc/elements/1.1/"
   xmlns:cc="http://creativecommons.org/ns#"
   xmlns:rdf="http://www.w3.org/1999/02/22-rdf-syntax-ns#"
   xmlns:svg="http://www.w3.org/2000/svg"
   xmlns="http://www.w3.org/2000/svg"
   xmlns:sodipodi="http://sodipodi.sourceforge.net/DTD/sodipodi-0.dtd"
   xmlns:inkscape="http://www.inkscape.org/namespaces/inkscape"
   width="32"
   height="32"
   viewBox="0 0 32 32"
   id="svg2"
   version="1.1"
   inkscape:version="0.91 r"
   sodipodi:docname="applications-cardgames.svg">
  <metadata
     id="metadata14">
    <rdf:RDF>
      <cc:Work
         rdf:about="">
        <dc:format>image/svg+xml</dc:format>
        <dc:type
           rdf:resource="http://purl.org/dc/dcmitype/StillImage" />
      </cc:Work>
    </rdf:RDF>
  </metadata>
  <defs
     id="defs12" />
  <sodipodi:namedview
     pagecolor="#ffffff"
     bordercolor="#666666"
     borderopacity="1"
     objecttolerance="10"
     gridtolerance="10"
     guidetolerance="10"
     inkscape:pageopacity="0"
     inkscape:pageshadow="2"
     inkscape:window-width="1920"
     inkscape:window-height="1056"
     id="namedview10"
     showgrid="true"
     inkscape:zoom="14.75"
     inkscape:cx="-7.1798274"
     inkscape:cy="16.3966"
     inkscape:window-x="0"
     inkscape:window-y="24"
     inkscape:window-maximized="1"
     inkscape:current-layer="svg2">
    <inkscape:grid
       type="xygrid"
       id="grid4142" />
  </sodipodi:namedview>
  <path
     style="fill:#f9b081"
     d="M 4.9003906 5 C 4.4071879 5 4 5.4005712 4 5.8808594 L 4 24.119141 C 4 24.599429 4.4071879 25 4.9003906 25 L 16.099609 25 C 16.592812 25 17 24.599429 17 24.119141 L 17 5.8808594 C 17 5.4005712 16.592812 5 16.099609 5 L 4.9003906 5 z M 8.5 11.5 C 9.011874 11.5 9.5235155 11.695411 9.9140625 12.085938 C 10.304113 12.475966 10.49952 12.988805 10.5 13.5 C 10.50008 12.970363 10.71178 12.460819 11.085938 12.085938 C 11.866996 11.30509 13.133002 11.305089 13.914062 12.085938 C 14.694952 12.866951 14.694952 14.133047 13.914062 14.914062 L 10.5 18.5 L 7.0859375 14.914062 C 6.3048446 14.133015 6.3048446 12.866986 7.0859375 12.085938 C 7.4764831 11.695411 7.9881259 11.5 8.5 11.5 z "
     id="path6" />
  <path
     style="fill:#f9b081"
     inkscape:connector-curvature="0"
     id="path8"
     d="M 18.680029,5.8916544 C 18.204288,5.7605151 17.706543,6.0420588 17.582502,6.5062432 L 12.889231,24.117316 c -0.124042,0.464184 0.165623,0.958937 0.641338,1.086076 l 10.798071,2.9073 c 0.471621,0.127114 0.965298,-0.150454 1.089314,-0.618647 L 30.115319,9.8809975 C 30.235267,9.4167882 29.945628,8.9260428 29.469887,8.7948954 Z m 4.049362,6.5201976 1.426905,5.2999 -3.885686,3.876396 -1.426906,-5.2999 z"
     sodipodi:nodetypes="cccccccccccccc" />
</svg>

<svg xmlns="http://www.w3.org/2000/svg" viewBox="0 0 32 32">
 <path d="m 4.9 5 c -0.493 0 -0.9 0.401 -0.9 0.881 l 0 18.238 c 0 0.48 0.407 0.881 0.9 0.881 l 11.199 0 c 0.493 0 0.9 -0.401 0.9 -0.881 l 0 -18.238 c 0 -0.48 -0.407 -0.881 -0.9 -0.881 l -11.199 0 z m 3.6 6.5 c 0.512 0 1.024 0.195 1.414 0.586 c 0.39 0.39 0.585 0.903 0.586 1.414 c 0 -0.53 0.212 -1.039 0.586 -1.414 c 0.781 -0.781 2.047 -0.781 2.828 0 c 0.781 0.781 0.781 2.047 0 2.828 l -3.414 3.586 l -3.414 -3.586 c -0.781 -0.781 -0.781 -2.047 0 -2.828 c 0.391 -0.391 0.902 -0.586 1.414 -0.586 z" style="fill:#f9b081"/>
 <path d="m 18.68 5.892 c -0.476 -0.131 -0.973 0.15 -1.098 0.615 l -4.693 17.611 c -0.124 0.464 0.166 0.959 0.641 1.086 l 10.798 2.907 c 0.472 0.127 0.965 -0.15 1.089 -0.619 l 4.697 -17.611 c 0.12 -0.464 -0.17 -0.955 -0.645 -1.086 m -6.74 3.617 1.427 5.3 -3.886 3.876 -1.427 -5.3 z" style="fill:#f9b081"/>
</svg>
